assets/mobNavFixed.svg

<svg width="60" height="60" viewBox="0 0 60 60" fill="none" xmlns="http://www.w3.org/2000/svg">
<g clip-path="url(#clip0)">
<path d="M30 60C46.5685 60 60 46.5685 60 30C60 13.4315 46.5685 0 30 0C13.4315 0 0 13.4315 0 30C0 46.5685 13.4315 60 30 60Z" fill="#FF513F"/>
<path d="M38.8423 58.6753C51.0948 54.9014 60 43.4914 60 30.0006C60 29.2957 59.9738 28.5972 59.9261 27.9046L45.3554 13.334L33.5984 23.2742L10 29.8332L38.8423 58.6753Z" fill="#DE3624"/>
<path d="M10 29.8332L21.7851 36.9043L28.8562 48.6893L45.3554 13.334L10 29.8332Z" fill="#273B7A"/>
<path d="M45.3554 13.334L21.7851 36.9043L10 29.8332L45.3554 13.334Z" fill="#FFC856"/>
<path d="M45.3554 13.334L21.7852 36.9043L28.8563 48.6893L45.3554 13.334Z" fill="#DCA637"/>
</g>
<defs>
<clipPath id="clip0">
<rect width="60" height="60" fill="white"/>
</clipPath>
</defs>
</svg>

<svg xmlns="http://www.w3.org/2000/svg" width="60" height="60" fill="none" xmlns:v="https://vecta.io/nano"><g clip-path="url(#A)"><path d="M30 60c16.57 0 30-13.43 30-30S46.57 0 30 0 0 13.432 0 30s13.432 30 30 30z" fill="#ff513f"/><path d="M38.842 58.675C51.095 54.9 60 43.49 60 30a30.49 30.49 0 0 0-.074-2.096l-14.57-14.57-11.757 9.94L10 29.833l28.842 28.842z" fill="#de3624"/><path d="M10 29.833l11.785 7.07 7.07 11.785 16.5-35.355L10 29.833z" fill="#273b7a"/><path d="M45.355 13.334l-23.57 23.57L10 29.833l35.355-16.5z" fill="#ffc856"/><path d="M45.355 13.334l-23.57 23.57 7.07 11.785 16.5-35.355z" fill="#dca637"/></g><defs><clipPath id="A"><path fill="#fff" d="M0 0h60v60H0z"/></clipPath></defs></svg>
